src/pos-icons/ice-cream.svg

<svg height="24" viewBox="0 0 24 24" width="24" xmlns="http://www.w3.org/2000/svg"><path d="m17.5 6.05c-.25-2.83-2.61-5.05-5.5-5.05s-5.25 2.22-5.5 5.05c-1.41.23-2.5 1.45-2.5 2.95 0 1.66 1.34 3 3 3l5 10 5-10c1.66 0 3-1.34 3-3 0-1.5-1.09-2.72-2.5-2.95m-5.5 11.48-3.11-6.22c.06-.05.11-.1.19-.15.85.53 1.85.84 2.92.84s2.07-.31 2.92-.84c.08.05.13.1.19.15z"/></svg>

<?xml version="1.0" encoding="UTF-8"?><!DOCTYPE svg PUBLIC "-//W3C//DTD SVG 1.1//EN" "http://www.w3.org/Graphics/SVG/1.1/DTD/svg11.dtd"><svg xmlns="http://www.w3.org/2000/svg" xmlns:xlink="http://www.w3.org/1999/xlink" version="1.1" id="mdi-ice-cream" width="24" height="24" viewBox="0 0 24 24"><path d="M17.5 6.05C17.25 3.22 14.89 1 12 1S6.75 3.22 6.5 6.05C5.09 6.28 4 7.5 4 9C4 10.66 5.34 12 7 12L12 22L17 12C18.66 12 20 10.66 20 9C20 7.5 18.91 6.28 17.5 6.05M12 17.53L8.89 11.31C8.95 11.26 9 11.21 9.08 11.16C9.93 11.69 10.93 12 12 12S14.07 11.69 14.92 11.16C15 11.21 15.05 11.26 15.11 11.31L12 17.53Z" /></svg>
